X: 6
T: The Rambler
R: jig
M: 6/8
L: 1/8
K: Amaj
~E3 E2A|FEC E2e|fec ABc|~d3 BAF|
~E3 EAA|FEC E2e|fec ABc|BAG A3:|
|:~e3 Ace|a~f2 fga|ece fec|~B3 Bcd|
~e3 Ace|a~f2 fga|ece fec|BAG A3:||


Tune 510	Setting 13434

